public/svg/flutter.svg

<svg width="158" height="192" viewBox="0 0 158 192" fill="none" xmlns="http://www.w3.org/2000/svg">
  <path
    d="M95.5059 10L10 95.7287L36.5176 121.773L148 10H95.5059ZM94.9647 88.6751L48.9647 134.795L75.4824 161.924L102 135.338L148 88.6751H94.9647Z"
    fill="#00D0FF" />
  <path d="M75.4824 161.924L95.5059 182H148L102 135.338L75.4824 161.924Z" fill="#00D0FF" />
  <path d="M48.9647 134.795L74.9412 108.751L102 135.338L75.4824 161.924L48.9647 134.795Z" fill="#00D0FF" />
  <path d="M75.4824 161.924L97.6706 154.328L99.8353 137.508L75.4824 161.924Z" fill="#00D0FF" />
</svg>

<svg xmlns="http://www.w3.org/2000/svg" width="158" height="192" fill="none" viewBox="0 0 158 192"><path fill="#00d0ff" d="M95.506 10 10 95.729l26.518 26.044L148 10zm-.541 78.675-46 46.12 26.517 27.129L102 135.338l46-46.663zM75.482 161.924 95.506 182H148l-46-46.662z"/><path fill="#00d0ff" d="m48.965 134.795 25.976-26.044L102 135.338l-26.518 26.586z"/><path fill="#00d0ff" d="m75.482 161.924 22.189-7.596 2.164-16.82z"/></svg>
